X:198
T:Suite in D Major - Rigaudon
C:Purcell, H.
M:2/2
L:1/8
Q:1/2=96
K:D
|:AB|d4 d2 AB|d4 d2 ef|g4 g2 ef|g4 g2 AB|
d2 ef g2 f2|e2 dc B2 A2|G2 AB c2 B2|A4 A2:|

